X:627
T:Rock the Cradle, Joe
M:2/2
S:Colin Hume's website,  colinhume.com  - chords can also be printed below the stave.
Q:1/2=120
L:1/8
K:D
P:A
|: fg | "D"abag fdfg | "D"abag fdfg | "D"abag fed2 | "Bm"[Bf]4[Bf]2 de |\
"D"fgfe dAde | "D"fgfe d2 f2 | "G"gfed "A7"cdec | "D"d6 :|
P:B
|: D2 | "A7"Acec Acec | "D"dcde f2f2 | "G"gfgf g2a2 | "D"f3gf4 |
"A7"Acec Acec | "D"dcde f2ef | "G"gfed "A7"cABc | "D"d3c d2 :|

